X:493
%%etbk:tnset id:216,pos:2,rep:3x,ant:
%%etbk:wsite http://thesession.org/tunes/11222
%%etbk:video src:ytube,cde:OxFL9WN5J4I,desc:second tune (-1)
%%etbk:skill ?
%%etbk:pldat 2013-11-23T16:23,2013-11-16T16:14,2013-11-12T18:41,2013-11-07T16:37,2013-11-04T18:58,2013-10-09T17:30,2013-10-02T17:26,2013-09-30T18:59,2013-09-29T16:37,2013-09-16T14:58,2013-09-11T18:58
T:Drunraney Lass
Z: Piano Box Version by Martin Fleischmann
H: Created 2013-09-11 /  Last Modified 2013-09-15
M:6/8
R:Jig
K:Ador
|:"am"!3!A2A ABA|"em"!2!G!1!EE !2!G2!4!B|"am"!3!A2!1!A AB!4!d|"em"!5!edB edB|
"am"!1!A2!3!A ABA|"em"!2!G!1!EE !2!G2!3!B|"G"!4!d!3!B!2!A !1!GAB|!4!ded !4!d!3!B!2!A:||
|:"G"!1!d!2!e!3!f !4!g2g|!5!agf g2e|!1!def !4!g2d|"D"!2!e!1!d!2!B !3!dBA|
"G"!3!d!4!e!3!f !4!ggg|!5!a!4!g!2!f !3!g2a|!5!bag !4!agf|!4!gfe !3!f!1!d!2!B:||
